1-js/02-first-steps/11-logical-operators/9-check-login/ifelse_task.svg

<?xml version="1.0" encoding="UTF-8"?>
<svg width="599px" height="493px" viewBox="0 0 599 493" version="1.1" xmlns="http://www.w3.org/2000/svg" xmlns:xlink="http://www.w3.org/1999/xlink">
    <!-- Generator: sketchtool 55.2 (78181) - https://sketchapp.com -->
    <title>ifelse_task.svg</title>
    <desc>Created with sketchtool.</desc>
    <g id="combined" stroke="none" stroke-width="1" fill="none" fill-rule="evenodd">
        <g id="ifelse_task.svg">
            <path id="Path-1218-Copy" d="M526.5,419.5 L526.5,329.5 L446,329.5 L444.5,329.5 L444.5,326.5 L529.5,326.5 L529.5,419.5 L537.5,419.5 L528,438.5 L518.5,419.5 L526.5,419.5 Z" fill="#EE6B47" fill-rule="nonzero"></path>
            <path id="Path-1218-Copy" d="M369.5,257.5 L369.5,134.5 L289,134.5 L287.5,134.5 L287.5,131.5 L372.5,131.5 L372.5,257.5 L380.5,257.5 L371,276.5 L361.5,257.5 L369.5,257.5 Z" fill="#EE6B47" fill-rule="nonzero"></path>
            <g id="Rectangle-1-+-Корень" transform="translate(180.000000, 4.000000)">
                <rect id="Rectangle-1" stroke="#E8C48E" stroke-width="2" fill="#FFF9EB" x="1" y="1" width="78" height="28" rx="14"></rect>
                <text id="Begin" font-family="OpenSans-Regular, Open Sans" font-size="14" font-weight="normal" fill="#8A704D">
                    <tspan x="21" y="20">Begin</tspan>
                </text>
            </g>
            <g id="Rectangle-1-+-Корень-Copy-2" transform="translate(0.000000, 243.000000)">
                <rect id="Rectangle-1" stroke="#E8C48E" stroke-width="2" fill="#FFF9EB" x="1" y="1" width="131" height="49" rx="24.5"></rect>
                <text id="Canceled" font-family="OpenSans-Regular, Open Sans" font-size="14" font-weight="normal" fill="#8A704D">
                    <tspan x="36.6474609" y="29">Canceled</tspan>
                </text>
            </g>
            <g id="Rectangle-1-+-Корень-Copy-5" transform="translate(150.000000, 438.000000)">
                <rect id="Rectangle-1" stroke="#E8C48E" stroke-width="2" fill="#FFF9EB" x="1" y="1" width="131" height="49" rx="24.5"></rect>
                <text id="Canceled" font-family="OpenSans-Regular, Open Sans" font-size="14" font-weight="normal" fill="#8A704D">
                    <tspan x="36.6474609" y="29">Canceled</tspan>
                </text>
            </g>
            <g id="Rectangle-1-+-Корень-Copy-6" transform="translate(458.000000, 438.000000)">
                <rect id="Rectangle-1" stroke="#E8C48E" stroke-width="2" fill="#FFF9EB" x="1" y="1" width="131" height="49" rx="24.5"></rect>
                <text id="Welcome!" font-family="OpenSans-Regular, Open Sans" font-size="14" font-weight="normal" fill="#8A704D">
                    <tspan x="35.0932617" y="29">Welcome!</tspan>
                </text>
            </g>
            <g id="Rectangle-1-+-Корень-Copy-4" transform="translate(154.000000, 243.000000)">
                <rect id="Rectangle-1" stroke="#E8C48E" stroke-width="2" fill="#FFF9EB" x="1" y="1" width="131" height="49" rx="24.5"></rect>
                <text id="I-don't-know-you" font-family="OpenSans-Regular, Open Sans" font-size="14" font-weight="normal" fill="#8A704D">
                    <tspan x="12.7729492" y="28">I don't know you</tspan>
                </text>
            </g>
            <g id="Rectangle-1-+-Корень-Copy-7" transform="translate(296.000000, 438.000000)">
                <rect id="Rectangle-1" stroke="#E8C48E" stroke-width="2" fill="#FFF9EB" x="1" y="1" width="147" height="49" rx="24.5"></rect>
                <text id="Wrong-password" font-family="OpenSans-Regular, Open Sans" font-size="14" font-weight="normal" fill="#8A704D">
                    <tspan x="18.1518555" y="29">Wrong password</tspan>
                </text>
            </g>
            <path id="Line" d="M219,58.0499687 L219,35 L222,35 L222,58.0499687 L230,58.0499687 L220.5,77.0499687 L211,58.0499687 L219,58.0499687 Z" fill="#EE6B47" fill-rule="nonzero"></path>
            <path id="Path-1218" d="M69.3890337,219.547739 L69.3890337,131.366765 L131.691299,131.366765 L131.691299,134.366765 L72.3890337,134.366765 L72.3890337,219.547739 L80.3890337,219.547739 L70.8890337,238.547739 L61.3890337,219.547739 L69.3890337,219.547739 Z" fill="#EE6B47" fill-rule="nonzero"></path>
            <path id="Path-1218-Copy-2" d="M219.065358,419.494817 L219.394323,326.366765 L281.691299,326.366765 L281.691299,329.366765 L222.383744,329.366765 L222.065339,419.505414 L230.06529,419.533673 L220.498234,438.499997 L211.065408,419.466558 L219.065358,419.494817 Z" fill="#EE6B47" fill-rule="nonzero"></path>
            <g id="Rectangle-354-+-Каково-“официальное”" transform="translate(127.000000, 81.000000)">
                <path d="M2.05929887,52 L93.6102814,102.856071 L185.161264,52 L93.6102814,1.14392927 L2.05929887,52 Z" id="Rectangle-354" stroke="#E8C48E" stroke-width="2" fill="#FFF9EB"></path>
                <text id="Who's-there?" font-family="OpenSans-Regular, Open Sans" font-size="14" font-weight="normal" fill="#8A704D">
                    <tspan x="51.722168" y="55">Who's there?</tspan>
                </text>
            </g>
            <g id="Rectangle-354-+-Каково-“официальное”-Copy" transform="translate(277.000000, 276.000000)">
                <path d="M2.05929887,52 L93.6102814,102.856071 L185.161264,52 L93.6102814,1.14392927 L2.05929887,52 Z" id="Rectangle-354" stroke="#E8C48E" stroke-width="2" fill="#FFF9EB"></path>
                <text id="Password?" font-family="OpenSans-Regular, Open Sans" font-size="14" font-weight="normal" fill="#8A704D">
                    <tspan x="59.0297852" y="55">Password?</tspan>
                </text>
            </g>
            <g id="Rectangle-356-+-Отмена" transform="translate(39.000000, 191.000000)">
                <rect id="Rectangle-356" fill="#FFFFFF" x="0" y="2" width="60" height="20"></rect>
                <text id="Cancel" font-family="OpenSans-Regular, Open Sans" font-size="14" font-weight="normal" fill="#8A704D">
                    <tspan x="7.5" y="15">Cancel</tspan>
                </text>
            </g>
            <g id="Rectangle-356-+-Отмена-Copy" transform="translate(189.000000, 384.000000)">
                <rect id="Rectangle-356" fill="#FFFFFF" x="0" y="2" width="60" height="20"></rect>
                <text id="Cancel" font-family="OpenSans-Regular, Open Sans" font-size="14" font-weight="normal" fill="#8A704D">
                    <tspan x="7.5" y="15">Cancel</tspan>
                </text>
            </g>
            <g id="Rectangle-356-Copy-+-“Админ”" transform="translate(341.000000, 191.000000)">
                <rect id="Rectangle-356-Copy" fill="#FFFFFF" x="0" y="2" width="60" height="20"></rect>
                <text id="Admin" font-family="OpenSans-Regular, Open Sans" font-size="14" font-weight="normal" fill="#8A704D">
                    <tspan x="7.70263672" y="15">Admin</tspan>
                </text>
            </g>
            <g id="Rectangle-356-Copy-+-“Админ”-Copy" transform="translate(493.000000, 384.000000)">
                <rect id="Rectangle-356-Copy" fill="#FFFFFF" x="7" y="2" width="60" height="20"></rect>
                <text id="TheMaster" font-family="OpenSans-Regular, Open Sans" font-size="14" font-weight="normal" fill="#8A704D">
                    <tspan x="0.095703125" y="15">TheMaster</tspan>
                </text>
            </g>
            <path id="Line" d="M220,224.560081 L220,182 L223,182 L223,224.560081 L231,224.560081 L221.5,243.560081 L212,224.560081 L220,224.560081 Z" fill="#EE6B47" fill-rule="nonzero"></path>
            <path id="Line-Copy-2" d="M370,419.560081 L370,377 L373,377 L373,419.560081 L381,419.560081 L371.5,438.560081 L362,419.560081 L370,419.560081 Z" fill="#EE6B47" fill-rule="nonzero"></path>
            <g id="Rectangle-356-Copy-2-+-“Админ”-Copy" transform="translate(191.000000, 191.000000)">
                <rect id="Rectangle-356-Copy-2" fill="#FFFFFF" x="0" y="2" width="60" height="20"></rect>
                <text id="Other" font-family="OpenSans-Regular, Open Sans" font-size="14" font-weight="normal" fill="#8A704D">
                    <tspan x="9.99609375" y="15">Other</tspan>
                </text>
            </g>
            <g id="Rectangle-356-Copy-2-+-“Админ”-Copy-Copy" transform="translate(341.000000, 384.000000)">
                <rect id="Rectangle-356-Copy-2" fill="#FFFFFF" x="0" y="2" width="60" height="20"></rect>
                <text id="Other" font-family="OpenSans-Regular, Open Sans" font-size="14" font-weight="normal" fill="#8A704D">
                    <tspan x="9.99609375" y="15">Other</tspan>
                </text>
            </g>
        </g>
    </g>
</svg>

<svg xmlns="http://www.w3.org/2000/svg" width="599" height="493" viewBox="0 0 599 493"><defs><style>@import url(https://fonts.googleapis.com/css?family=Open+Sans:bold,italic,bolditalic%7CPT+Mono);@font-face{font-family:&apos;PT Mono&apos;;font-weight:700;font-style:normal;src:local(&apos;PT MonoBold&apos;),url(/font/PTMonoBold.woff2) format(&apos;woff2&apos;),url(/font/PTMonoBold.woff) format(&apos;woff&apos;),url(/font/PTMonoBold.ttf) format(&apos;truetype&apos;)}</style></defs><g id="combined" fill="none" fill-rule="evenodd" stroke="none" stroke-width="1"><g id="ifelse_task.svg"><path id="Path-1218-Copy" fill="#EE6B47" fill-rule="nonzero" d="M529.5 326.5v93h8l-9.5 19-9.5-19h8v-90h-82v-3h85zM372.5 131.5v126h8l-9.5 19-9.5-19h8v-123h-82v-3h85z"/><g id="Rectangle-1-+-Корень" transform="translate(180 4)"><rect id="Rectangle-1" width="78" height="28" x="1" y="1" fill="#FFF9EB" stroke="#E8C48E" stroke-width="2" rx="14"/><text id="Begin" fill="#8A704D" font-family="OpenSans-Regular, Open Sans" font-size="14" font-weight="normal"><tspan x="21" y="20">Begin</tspan></text></g><g id="Rectangle-1-+-Корень-Copy-2" transform="translate(0 243)"><rect id="Rectangle-1" width="131" height="49" x="1" y="1" fill="#FFF9EB" stroke="#E8C48E" stroke-width="2" rx="24.5"/><text id="Canceled" fill="#8A704D" font-family="OpenSans-Regular, Open Sans" font-size="14" font-weight="normal"><tspan x="36.647" y="29">Canceled</tspan></text></g><g id="Rectangle-1-+-Корень-Copy-5" transform="translate(150 438)"><rect id="Rectangle-1" width="131" height="49" x="1" y="1" fill="#FFF9EB" stroke="#E8C48E" stroke-width="2" rx="24.5"/><text id="Canceled" fill="#8A704D" font-family="OpenSans-Regular, Open Sans" font-size="14" font-weight="normal"><tspan x="36.647" y="29">Canceled</tspan></text></g><g id="Rectangle-1-+-Корень-Copy-6" transform="translate(458 438)"><rect id="Rectangle-1" width="131" height="49" x="1" y="1" fill="#FFF9EB" stroke="#E8C48E" stroke-width="2" rx="24.5"/><text id="Welcome!" fill="#8A704D" font-family="OpenSans-Regular, Open Sans" font-size="14" font-weight="normal"><tspan x="35.093" y="29">Welcome!</tspan></text></g><g id="Rectangle-1-+-Корень-Copy-4" transform="translate(154 243)"><rect id="Rectangle-1" width="131" height="49" x="1" y="1" fill="#FFF9EB" stroke="#E8C48E" stroke-width="2" rx="24.5"/><text id="I-don't-know-you" fill="#8A704D" font-family="OpenSans-Regular, Open Sans" font-size="14" font-weight="normal"><tspan x="12.773" y="28">I don&apos;t know you</tspan></text></g><g id="Rectangle-1-+-Корень-Copy-7" transform="translate(296 438)"><rect id="Rectangle-1" width="147" height="49" x="1" y="1" fill="#FFF9EB" stroke="#E8C48E" stroke-width="2" rx="24.5"/><text id="Wrong-password" fill="#8A704D" font-family="OpenSans-Regular, Open Sans" font-size="14" font-weight="normal"><tspan x="18.152" y="29">Wrong password</tspan></text></g><path id="Line" fill="#EE6B47" fill-rule="nonzero" d="M222 35v23.049l8 .001-9.5 19-9.5-19 8-.001V35h3z"/><path id="Path-1218" fill="#EE6B47" fill-rule="nonzero" d="M131.691 131.367v3l-59.302-.001v85.181h8l-9.5 19-9.5-19h8v-88.18h62.302z"/><path id="Path-1218-Copy-2" fill="#EE6B47" fill-rule="nonzero" d="M281.691 326.367v3l-59.307-.001-.319 90.139 8 .029-9.567 18.966-9.433-19.033 8 .027.324-91.633.005-1.494h62.297z"/><g id="Rectangle-354-+-Каково-“официальное”" transform="translate(127 81)"><path id="Rectangle-354" fill="#FFF9EB" stroke="#E8C48E" stroke-width="2" d="M2.06 52l91.55 50.856L185.161 52 93.611 1.144 2.058 52z"/><text id="Who's-there?" fill="#8A704D" font-family="OpenSans-Regular, Open Sans" font-size="14" font-weight="normal"><tspan x="51.722" y="55">Who&apos;s there?</tspan></text></g><g id="Rectangle-354-+-Каково-“официальное”-Copy" transform="translate(277 276)"><path id="Rectangle-354" fill="#FFF9EB" stroke="#E8C48E" stroke-width="2" d="M2.06 52l91.55 50.856L185.161 52 93.611 1.144 2.058 52z"/><text id="Password?" fill="#8A704D" font-family="OpenSans-Regular, Open Sans" font-size="14" font-weight="normal"><tspan x="59.03" y="55">Password?</tspan></text></g><g id="Rectangle-356-+-Отмена" transform="translate(39 191)"><path id="Rectangle-356" fill="#FFF" d="M0 2h60v20H0z"/><text id="Cancel" fill="#8A704D" font-family="OpenSans-Regular, Open Sans" font-size="14" font-weight="normal"><tspan x="7.5" y="15">Cancel</tspan></text></g><g id="Rectangle-356-+-Отмена-Copy" transform="translate(189 384)"><path id="Rectangle-356" fill="#FFF" d="M0 2h60v20H0z"/><text id="Cancel" fill="#8A704D" font-family="OpenSans-Regular, Open Sans" font-size="14" font-weight="normal"><tspan x="7.5" y="15">Cancel</tspan></text></g><g id="Rectangle-356-Copy-+-“Админ”" transform="translate(341 191)"><path id="Rectangle-356-Copy" fill="#FFF" d="M0 2h60v20H0z"/><text id="Admin" fill="#8A704D" font-family="OpenSans-Regular, Open Sans" font-size="14" font-weight="normal"><tspan x="7.703" y="15">Admin</tspan></text></g><g id="Rectangle-356-Copy-+-“Админ”-Copy" transform="translate(493 384)"><path id="Rectangle-356-Copy" fill="#FFF" d="M7 2h60v20H7z"/><text id="TheMaster" fill="#8A704D" font-family="OpenSans-Regular, Open Sans" font-size="14" font-weight="normal"><tspan x=".096" y="15">TheMaster</tspan></text></g><path id="Line" fill="#EE6B47" fill-rule="nonzero" d="M223 182v42.56h8l-9.5 19-9.5-19h8V182h3z"/><path id="Line-Copy-2" fill="#EE6B47" fill-rule="nonzero" d="M373 377v42.56h8l-9.5 19-9.5-19h8V377h3z"/><g id="Rectangle-356-Copy-2-+-“Админ”-Copy" transform="translate(191 191)"><path id="Rectangle-356-Copy-2" fill="#FFF" d="M0 2h60v20H0z"/><text id="Other" fill="#8A704D" font-family="OpenSans-Regular, Open Sans" font-size="14" font-weight="normal"><tspan x="9.996" y="15">Other</tspan></text></g><g id="Rectangle-356-Copy-2-+-“Админ”-Copy-Copy" transform="translate(341 384)"><path id="Rectangle-356-Copy-2" fill="#FFF" d="M0 2h60v20H0z"/><text id="Other" fill="#8A704D" font-family="OpenSans-Regular, Open Sans" font-size="14" font-weight="normal"><tspan x="9.996" y="15">Other</tspan></text></g></g></g></svg>
